X: 1
T: the Weaver's Complaint
R: air
Z: 2008 John Chambers <jc:trillian.mit.edu>
M: C
L: 1/8
K: G
D \
| "G"D>ED D>ED | D>EG B2B | "C"c>BA "G"B>AG | "D"ABd "C"e2d |
| "G"B>AG "D"A<BA | "C"G>EC "G"DEG | "D"A>BA A>BA | "C"G>AG "G"G2 |]
|: G \
| "C"e>de/g/ "G"B2G | "C"e>de/g/ "D"a2b/a/ | "C"g>fe "G"dBG | "F"=F>GA "G"G2 :|
